assets/img/svg/footer-logo.svg

<?xml version="1.0" encoding="UTF-8"?>
<svg width="38px" height="37px" viewBox="0 0 38 37" version="1.1" xmlns="http://www.w3.org/2000/svg" xmlns:xlink="http://www.w3.org/1999/xlink">
    <!-- Generator: Sketch 42 (36781) - http://www.bohemiancoding.com/sketch -->
    <title>Group 2</title>
    <desc>Created with Sketch.</desc>
    <defs></defs>
    <g id="Symbols" stroke="none" stroke-width="1" fill="none" fill-rule="evenodd" opacity="0.5">
        <g id="footer" transform="translate(-233.000000, -281.000000)" fill="#FFFFFF">
            <g id="Group-2" transform="translate(233.000000, 281.000000)">
                <path d="M36.2836148,16.8508378 C36.6509481,16.8404598 37.0553767,17.1278866 37.0752814,17.7857646 C37.1024243,18.6945207 36.4776862,19.2531305 36.4776862,19.2531305 L37.511829,19.2224476 C37.7049957,18.9363744 37.9379719,18.4445451 37.91671,17.76185 C37.8818767,16.5801061 37.0540195,15.9339598 36.2560195,15.9578744 C34.4121148,16.0129232 34.350591,18.6823378 33.113329,18.719789 C32.47321,18.7387402 32.2144481,18.2108134 32.1986148,17.6824354 C32.1669481,16.6279354 33.0481862,16.0151793 33.05271,16.0097646 L31.9054719,16.0436061 C31.6616386,16.3923988 31.3354719,16.9961305 31.355829,17.7077037 C31.3888529,18.7924354 32.0918529,19.6434354 33.1395671,19.61185 C34.9355195,19.5590573 34.9794005,16.8896427 36.2836148,16.8508378" id="Fill-23"></path>
                <polygon id="Fill-25" points="4.40577666 6.14628659 1.95975286 9.85170122 2.64058619 10.2979573 3.60641952 8.83555488 8.27680047 11.9029451 8.79161 11.1227866 4.12077666 8.05539634 5.08615762 6.59254268"></polygon>
                <path d="M1.58744333,18.7495695 C1.21965762,18.7414476 0.829705236,18.4337159 0.842824284,17.776289 C0.861371903,16.8675329 1.51325286,16.3405085 1.51325286,16.3405085 L0.478657617,16.3197524 C0.272371903,16.5958988 0.0145147601,17.0741915 0.000490950551,17.7586915 C-0.022580478,18.9395329 0.771348093,19.6267402 1.56980047,19.6425329 C3.41415762,19.6799841 3.60913381,17.0159841 4.84684809,17.0412524 C5.4878719,17.0534354 5.71903857,17.5930939 5.70863381,18.1223744 C5.6873719,19.1773256 4.77627666,19.7449598 4.77130047,19.7503744 L5.91944333,19.7724841 C6.18001476,19.4367768 6.53649095,18.8506427 6.55096714,18.1386183 C6.57268143,17.0534354 5.91265762,16.1676915 4.86539571,16.148289 C3.06899095,16.1117402 2.89165762,18.7748378 1.58744333,18.7495695" id="Fill-27"></path>
                <polygon id="Fill-29" points="3.00380286 27.0896402 2.34016 27.5602622 4.50254095 30.5929085 9.72301714 26.8874939 7.56018381 23.8562012 6.89608857 24.3268232 8.51606476 26.597811 6.85854095 27.773689 5.39282666 25.7192866 4.72873143 26.1899085 6.19489809 28.2456646 4.62423143 29.360628"></polygon>
                <path d="M14.9750695,33.9901402 L14.3720457,35.8216402 C14.3720457,35.8216402 13.8404981,35.6474695 13.5966648,35.5671524 C13.0795933,35.3979451 12.772879,34.91875 12.9488552,34.3858598 C13.1601171,33.7437744 13.6826171,33.5668963 14.200141,33.7361037 C14.4426171,33.8150671 14.9750695,33.9901402 14.9750695,33.9901402 L14.9750695,33.9901402 Z M12.5276886,29.3574695 L13.684879,32.9320305 C13.0610457,32.8954817 12.3105457,33.3047378 12.0513314,34.0925671 C11.7161171,35.1096159 12.3105457,36.0125061 13.33926,36.3500183 C13.6789981,36.4614695 15.0035695,36.8946402 15.0035695,36.8946402 L17.002641,30.8234817 L16.1137124,30.5319939 L15.2243314,33.2320915 L14.5729029,33.0191159 L13.561379,29.6963354 L12.5276886,29.3574695 Z" id="Fill-31"></path>
                <path d="M24.0021505,30.6002634 C25.2421267,30.0921902 26.6255076,30.599361 27.1665552,31.9110561 C27.7071505,33.2245561 27.0806029,34.5543 25.8401743,35.0628244 C24.5997457,35.5708976 23.2168171,35.0650805 22.6753171,33.7511293 C22.1351743,32.4394341 22.7617219,31.1083366 24.0021505,30.6002634 M26.1686029,35.8587756 C27.9184124,35.1413366 28.8154838,33.2940439 28.0898648,31.5329341 C27.3646981,29.7722756 25.4244362,29.0868732 23.6732695,29.803861 C21.92346,30.5213 21.026841,32.3690439 21.7520076,34.1306049 C22.4771743,35.8921659 24.4178886,36.5757634 26.1686029,35.8587756" id="Fill-33"></path>
                <polygon id="Fill-35" points="33.8078695 30.2164561 36.1625124 26.4514805 35.4712743 26.0214683 34.5416314 27.5073341 29.7975124 24.5545537 29.3017029 25.3473463 34.0458219 28.2996756 33.1166314 29.7855415"></polygon>
                <polygon id="Fill-37" points="33.404979 6.08898171 32.4965981 8.88248171 35.4388838 8.98355488 36.0473362 9.85034756 32.1405743 9.7009939 29.443479 11.5870915 28.9065029 10.8227256 31.6035981 8.93662805 32.7956219 5.22218902"></polygon>
                <path d="M23.5661457,2.90359756 L24.2356695,1.09556098 C24.2356695,1.09556098 24.7608838,1.28913415 25.0015505,1.37802439 C25.5118362,1.56618293 25.8004552,2.05665854 25.605479,2.58278049 C25.3706933,3.21584146 24.84186,3.37467073 24.3311219,3.1865122 C24.09136,3.09852439 23.5661457,2.90359756 23.5661457,2.90359756 L23.5661457,2.90359756 Z M25.8407171,7.62335366 L24.8160743,4.00773171 C25.4385505,4.06864634 26.2035267,3.68556098 26.4916933,2.90946341 C26.8635505,1.90504878 26.3030505,0.98004878 25.2874552,0.605987805 C24.9526933,0.481902439 23.6444076,0 23.6444076,0 L21.4232171,5.99445122 L22.3008362,6.31752439 L23.2888362,3.65171951 L23.9316695,3.8895122 L24.8201457,7.24703659 L25.8407171,7.62335366 Z" id="Fill-39"></path>
                <path d="M14.4111767,5.92816707 C13.1512957,6.38480122 11.7900814,5.82167927 11.3037719,4.48787439 C10.8179148,3.15497195 11.4992005,1.85004512 12.7595338,1.39341098 C14.0194148,0.937228049 15.3810814,1.50035 15.8664862,2.8346061 C16.3527957,4.16750854 15.67151,5.47198415 14.4111767,5.92816707 M12.4650338,0.583923171 C10.6862719,1.22871585 9.71365286,3.03900854 10.3655338,4.8280939 C11.0169624,6.61672805 12.9273671,7.38244756 14.706129,6.7381061 C16.4844386,6.09195976 17.4570576,4.28302073 16.8051767,2.49348415 C16.1532957,0.70530122 14.242891,-0.0599670732 12.4650338,0.583923171" id="Fill-41"></path>
                <path d="M15.9781338,15.8382561 C15.9781338,16.9062927 16.5712052,17.9084512 17.5013005,18.4318659 L15.8089433,23.8564268 L22.11061,23.8564268 L20.4182529,18.4318659 C21.3488005,17.9084512 21.9418719,16.9062927 21.9418719,15.8382561 C21.9418719,14.1980732 20.6041814,12.8638171 18.960229,12.8638171 C17.3158243,12.8638171 15.9781338,14.1980732 15.9781338,15.8382561" id="Fill-131"></path>
            </g>
        </g>
    </g>
</svg>

<svg width="38" height="37" viewBox="0 0 38 37" xmlns="http://www.w3.org/2000/svg"><title>Group 2</title><g fill="#FFF" fill-rule="evenodd" opacity=".5"><path d="M36.284 16.85c.367-.01.771.278.791.936.027.909-.597 1.467-.597 1.467l1.034-.03c.193-.287.426-.778.405-1.461-.035-1.182-.863-1.828-1.661-1.804-1.844.055-1.905 2.724-3.143 2.762-.64.019-.899-.51-.914-1.038-.032-1.054.85-1.667.854-1.672l-1.148.034c-.243.348-.57.952-.55 1.664.034 1.084.737 1.935 1.785 1.904 1.796-.053 1.84-2.722 3.144-2.761M4.406 6.146L1.96 9.852l.68.446.966-1.462 4.67 3.067.516-.78L4.12 8.055l.965-1.462zM1.587 18.75c-.367-.009-.757-.316-.744-.974.018-.908.67-1.435.67-1.435L.48 16.32A2.46 2.46 0 0 0 0 17.759c-.023 1.18.771 1.868 1.57 1.884 1.844.037 2.04-2.627 3.277-2.602.64.012.872.552.862 1.081-.022 1.055-.933 1.623-.938 1.628l1.148.022c.261-.335.617-.921.632-1.633.022-1.086-.638-1.971-1.686-1.99-1.796-.037-1.973 2.626-3.278 2.6M3.004 27.09l-.664.47 2.163 3.033 5.22-3.706-2.163-3.03-.664.47 1.62 2.27-1.657 1.177-1.466-2.055-.664.47 1.466 2.057-1.57 1.115zM14.975 33.99l-.603 1.832-.775-.255c-.517-.17-.824-.648-.648-1.181.211-.642.734-.82 1.251-.65l.775.254zm-2.447-4.633l1.157 3.575c-.624-.037-1.374.373-1.634 1.16-.335 1.018.26 1.92 1.288 2.258l1.665.545 1.999-6.072-.89-.291-.889 2.7-.651-.213-1.012-3.323-1.033-.339zM24.002 30.6c1.24-.508 2.624 0 3.165 1.311.54 1.314-.086 2.643-1.327 3.152-1.24.508-2.623.002-3.165-1.312-.54-1.312.087-2.643 1.327-3.15m2.167 5.258c1.75-.718 2.646-2.565 1.92-4.326-.724-1.76-2.665-2.446-4.416-1.73-1.75.718-2.646 2.566-1.921 4.328.725 1.761 2.666 2.445 4.417 1.728M33.808 30.216l2.355-3.765-.692-.43-.93 1.486-4.743-2.952-.496.792 4.744 2.953-.93 1.486zM33.405 6.089l-.908 2.793 2.942.102.608.866-3.906-.149-2.698 1.886-.536-.764 2.697-1.886 1.192-3.715zM23.566 2.904l.67-1.808.766.282c.51.188.798.679.603 1.205-.234.633-.763.792-1.274.604l-.765-.283zm2.275 4.72l-1.025-3.616c.623.06 1.388-.322 1.676-1.099.372-1.004-.189-1.929-1.205-2.303L23.644 0l-2.22 5.994.877.324.988-2.666.643.238.888 3.357 1.02.376zM14.411 5.928c-1.26.457-2.62-.106-3.107-1.44-.486-1.333.195-2.638 1.456-3.095 1.26-.456 2.621.107 3.106 1.442.487 1.333-.194 2.637-1.455 3.093M12.465.584c-1.779.645-2.751 2.455-2.1 4.244.652 1.789 2.562 2.554 4.341 1.91 1.778-.646 2.751-2.455 2.1-4.245C16.152.705 14.242-.06 12.464.583M15.978 15.838a3 3 0 0 0 1.523 2.594l-1.692 5.424h6.302l-1.693-5.424a3 3 0 0 0 1.524-2.594 2.981 2.981 0 0 0-5.964 0"/></g></svg>
